X: 20676
T: John Watt Henry's
R: reel
M: 4/4
K: Dmajor
|:ABA BAB|Adf a2 f|gag fgf|(3efg e dcB|
ABA BAB|Adf a2 f|gag fgf|edc d3:|

